X:1
T:Title
%%score { ( 1 3 ) | ( 2 4 ) }
L:1/8
M:4/4
K:Eb
V:1 treble nm="Grand Piano"
V:3 treble 
V:2 bass 
V:4 bass 
V:1
 z4 z2[Q:1/4=100] EF | G2 G2 G2 [DF][EG] | [B,EA]2 [DAc]2 [EGB]4 | [Ge]2 [GB][Ac] [GB]2 [EG][EG] | %4
 [DF]6 z F | G2 G2 G2 [DF][EG] | [B,DA]2 [DAc]2 [EGB]4 | [Ge]2 [EGB][CFA] [B,EG]2 [A,DF][A,DF] | %8
[M:3/4] [G,E]6 |[M:1/4] GA |[M:4/4] B4 [EG]2 z2 | ee c2 [GB]4 | [GB] [GB]2 [GB] [Ac]<[GB] [EG]2 | %13
 [DF]6 [DA]2 | G2 GA B2 BB |[M:9/8] e2 e d c2- c [Ec]2 | %16
[M:4/4] [EB]2 [EB][CEA] [B,EG]2 [A,DF][A,DF] |[M:3/4] [G,E]6 |] %18
V:2
 z4 z2 [E,G,][E,A,E] | [E,B,E]2 [E,B,E]2 [E,B,E]2 A,G, | F,2 B,,2 E,4 | %3
 [E,B,]2 [E,E][E,E] [E,E]2 [E,B,][E,B,] | [B,,B,]6 [E,G,][E,A,] | [E,B,E]2 [E,B,E]2 [E,B,E]2 A,G, | %6
 F,2 B,,2 E,4 | [E,B,]2 E,A,, B,,2 B,,B,, |[M:3/4] E,6 |[M:1/4][K:treble] EF | %10
[M:4/4] G4[K:bass] z4 | [A,CA][A,CA] [A,EA]2[K:bass] [E,E]4 | %12
 [E,E] [E,E]2 [E,E] [E,E]<[E,E] [E,B,]2 | [B,,B,]6 [B,,B,]2 | %14
 [E,B,E]2 [E,B,E][F,B,D][K:treble] [G,B,E]2 [G,B,E][G,B,E] | %15
[M:9/8] [A,CE]2 [A,CE] [A,B,F][K:bass] [A,E]2- [A,E] [A,,A,]2 | %16
[M:4/4] [B,,G,]2 [B,,G,]B,, B,,2 B,,B,, |[M:3/4] E,6 |] %18
V:3
 x8 | z4 z2 B,2 | x8 | x8 | z4 z2 E2 | z4 z2 B,2 | x8 | x8 |[M:3/4] x6 |[M:1/4] x2 | %10
[M:4/4] z2 EE B,B,[GB][GB] | x8 | x8 | x8 | x8 |[M:9/8] x9 |[M:4/4] x8 |[M:3/4] x6 |] %18
V:4
 x8 | x8 | x8 | x8 | x8 | x8 | x8 | x8 |[M:3/4] x6 |[M:1/4][K:treble] x2 | %10
[M:4/4] z2[K:bass] E,E, E,E,[E,E][E,E] | x4[K:bass] x4 | x8 | x8 | x4[K:treble] x4 | %15
[M:9/8] x4[K:bass] x5 |[M:4/4] x8 |[M:3/4] x6 |] %18

